X:2950
T:Brural\aat
C:anon.
O:Norway
A:Valdres
Z:Transcribed by Frank Nordberg - http://www.musicaviva.com
F:http://abc.musicaviva.com/tunes/norway/bruralaat/bruralaat-1.abc
M:C
L:1/8
K:G
z D|G2 G>G G>A B>G|A2 A>B A3 B|c>B c>d e>d c>B|A2 A>B A3 D|
G2 G>G G>A B>G|A2 A>A A2 B>c|d>c B>A B2 A2|G2 G>G G2 z B|
d2 d>d e>d c>B|c2 c>d c3 c|B>A B>c e>d c>B|A2 A>A A2 D2|
G2 G>G G>A B>G|A2 A>A A2 B>c|d>c B>A B2 A2|G2 G>G G2|]
W:
W:
W:  From Musica Viva - http://www.musicaviva.com
W:  the Internet center for free sheet music downloads.
